svgs/sharp-solid/merge.svg

<svg xmlns="http://www.w3.org/2000/svg" viewBox="0 0 512 512"><!--! Font Awesome Pro 6.6.0 by @fontawesome - https://fontawesome.com License - https://fontawesome.com/license (Commercial License) Copyright 2024 Fonticons, Inc. --><path d="M160 64l15.4 0L185 76 303.4 224l80.6 0 0-64 32 0 96 96-96 96-32 0 0-64-80.6 0L185 436l-9.6 12L160 448 32 448 0 448l0-64 32 0 112.6 0L247 256 144.6 128 32 128 0 128 0 64l32 0 128 0z"/></svg>

<svg xmlns="http://www.w3.org/2000/svg" viewBox="0 0 512 512"><!--! Font Awesome Pro 6.4.2 by @fontawesome - https://fontawesome.com License - https://fontawesome.com/license (Commercial License) Copyright 2023 Fonticons, Inc. --><path d="M160 64h15.4L185 76 303.4 224H384V160h32l96 96-96 96H384V288H303.4L185 436l-9.6 12H160 32 0V384H32 144.6L247 256 144.6 128H32 0V64H32 160z"/></svg>
